build/svg/svx/res/marker-anchor-pressed.svg

<svg height="22" viewBox="0 0 22 22" width="22" xmlns="http://www.w3.org/2000/svg"><path d="m0 0v22h22v-22zm11 3c1.104569 0 2 .89543 2 2 0 .93198-.637301 1.715537-1.5 1.9375v2.0625h2.5v1h-2.5v7.96875c2.539039-.16277 4.748393-1.51216 6.09375-3.5l-.1875-.09375-.90625-.5.5-.875s3.000014 1.62437 3 1.625l-.5.875-1.03125-.5625c-1.604845 2.43564-4.335597 4.0625-7.46875 4.0625s-5.864588-1.62686-7.46875-4.0625l-1.03125.5625-.5-.875s3.000019-1.624983 3-1.625l.5.875-.90625.5-.1875.09375c1.345357 1.98784 3.55471 3.33723 6.09375 3.5v-7.96875h-2.5v-1h2.5v-2.0625c-.862699-.221963-1.5-1.00552-1.5-1.9375 0-1.10457.895431-2 2-2zm0 1c-.552285 0-1 .447715-1 1s.447715 1 1 1 1-.447715 1-1-.447715-1-1-1z" fill="#232629" opacity=".8"/><path d="m11.000001 3.00002c-1.1045691 0-2.0000001.8954-2.0000001 2 0 .932.637301 1.7155 1.5000001 1.9375v2.0625h-2.5000001v1h2.5000001v7.9687c-2.5390401-.1627-4.7483931-1.5121-6.0937501-3.5l.1875-.094.90625-.5-.5-.875c.000019 0-3 1.625-3 1.625l.5.875 1.03125-.5625c1.604162 2.4357 4.335597 4.0625 7.4687501 4.0625 3.133153 0 5.863905-1.6268 7.46875-4.0625l1.031249.5625.5-.875c.000014-.0006-2.999999-1.625-2.999999-1.625l-.5.875.90625.5.1875.094c-1.345357 1.9879-3.554711 3.3373-6.09375 3.5v-7.9687h2.5v-1h-2.5v-2.0625c.862699-.222 1.5-1.0055 1.5-1.9375 0-1.1046-.895431-2-2-2zm0 1c.552285 0 1 .4477 1 1s-.447715 1-1 1-1-.4477-1-1 .447715-1 1-1z" fill="#fff" fill-rule="evenodd" opacity=".8"/></svg>

<svg height="22" width="22" xmlns="http://www.w3.org/2000/svg"><path d="M0 0v22h22V0zm11 3a2 2 0 01.5 3.938V9H14v1h-2.5v7.969a7.968 7.968 0 006.094-3.5l-.188-.094-.906-.5L17 13l3 1.625-.5.875-1.031-.563C16.864 17.373 14.133 19 11 19s-5.865-1.627-7.469-4.063L2.5 15.5l-.5-.875L5 13l.5.875-.906.5-.188.094a7.968 7.968 0 006.094 3.5V10H8V9h2.5V6.937A2.001 2.001 0 0111 3zm0 1a1 1 0 100 2 1 1 0 000-2z" fill="#232629" opacity=".8"/><path d="M11 3a2 2 0 00-.5 3.938V9H8v1h2.5v7.969a7.968 7.968 0 01-6.094-3.5l.188-.094.906-.5L5 13l-3 1.625.5.875 1.031-.563C5.135 17.373 7.867 19 11 19s5.864-1.627 7.469-4.063l1.031.563.5-.875L17 13l-.5.875.906.5.188.094a7.968 7.968 0 01-6.094 3.5V10H14V9h-2.5V6.938A2.001 2.001 0 0011 3zm0 1a1 1 0 110 2 1 1 0 010-2z" fill="#fff" fill-rule="evenodd" opacity=".8"/></svg>
